src/16/panel/indicator-lunar-satelite.svg

<svg xmlns="http://www.w3.org/2000/svg" width="16" height="16" version="1.1">
 <defs>
  <style id="current-color-scheme" type="text/css">
   .ColorScheme-Text { color:#dfdfdf; } .ColorScheme-Highlight { color:#4285f4; }
  </style>
 </defs>
 <path style="fill:currentColor" class="ColorScheme-Text" d="M 4.2933,1 3.1038,2.1906 4.2933,3.3812 5.4828,2.1906 Z M 13.624,1.1677 A 1.2618,1.263 0 0 0 12.362,2.4307 1.2618,1.263 0 0 0 13.624,3.6937 1.2618,1.263 0 0 0 14.886,2.4307 1.2618,1.263 0 0 0 13.624,1.1677 Z M 2.5092,2.7859 1.318,3.9766 2.5092,5.1671 3.6986,3.9766 Z M 6.0777,2.7859 4.8882,3.9766 6.0777,5.1671 7.2672,3.9766 Z M 11.769,3.3944 11.074,4.09 11.966,4.983 12.661,4.2873 C 12.28,4.0869 11.97,3.7762 11.769,3.3944 Z M 9.0023,3.4421 3.9254,8.5239 C 4.7134,8.8321 5.4518,9.3162 6.0777,9.9427 6.7025,10.57 7.1857,11.307 7.4939,12.096 L 12.571,7.0126 Z M 4.2934,4.5719 3.1039,5.7624 4.2934,6.9528 5.4829,5.7624 Z M 12.025,8.7454 10.835,9.9376 12.025,11.128 13.215,9.9376 Z M 1.8951,8.9626 C 1.7137,8.9668 1.533,8.9811 1.3545,9.0106 A 0.42064,0.42103 0 0 0 1.1245,9.7254 L 6.2686,14.875 A 0.42064,0.42103 0 0 0 6.9833,14.644 C 7.214,13.216 6.6273,11.663 5.4833,10.515 4.4803,9.5116 3.1648,8.9357 1.8951,8.9626 Z M 10.241,10.533 9.0519,11.723 10.241,12.914 11.431,11.723 Z M 13.811,10.533 12.62,11.723 13.811,12.914 15,11.723 Z M 12.026,12.319 10.836,13.509 12.026,14.7 13.216,13.509 Z"/>
</svg>

<svg xmlns="http://www.w3.org/2000/svg" width="16" height="16"><defs><style id="current-color-scheme" type="text/css"></style></defs><path d="M4.293 1l-1.19 1.19 1.19 1.191 1.19-1.19zm9.331.168a1.262 1.263 0 0 0-1.262 1.263 1.262 1.263 0 0 0 1.262 1.263 1.262 1.263 0 0 0 1.262-1.263 1.262 1.263 0 0 0-1.262-1.263zM2.509 2.786l-1.191 1.19 1.191 1.191 1.19-1.19zm3.569 0l-1.19 1.19 1.19 1.191 1.19-1.19zm5.691.608l-.695.696.892.893.695-.696a2.126 2.126 0 0 1-.892-.893zm-2.767.048L3.925 8.524a6.306 6.306 0 0 1 2.153 1.419 6.331 6.331 0 0 1 1.416 2.153l5.077-5.083zm-4.709 1.13l-1.19 1.19 1.19 1.19 1.19-1.19zm7.732 4.173l-1.19 1.193 1.19 1.19 1.19-1.19zm-10.13.218a3.862 3.862 0 0 0-.54.048.42.421 0 0 0-.23.714l5.144 5.15a.42.421 0 0 0 .714-.231c.231-1.428-.356-2.981-1.5-4.129-1.003-1.003-2.318-1.58-3.588-1.552zm8.346 1.57l-1.19 1.19 1.19 1.191 1.19-1.191zm3.57 0l-1.191 1.19 1.191 1.191L15 11.723zm-1.785 1.786l-1.19 1.19 1.19 1.191 1.19-1.191z" fill="currentColor" color="#bebebe"/></svg>
